!!!COM: Mozart
!!!OTL: 8 Variationen uber das Lied "Ein Weib ist das herrlichste Ding"
!!!Variation: Variation 4 c
**function	**harm	**kern	**kern
*	*	*clefF4	*clefG2
*	*	*k[b-]	*k[b-]
*M3/4	*M3/4	*M3/4	*M3/4
*F:	*F:	*F:	*F:
4D	4V	4r	4e' 4g'
=203	=203	=203	=203
2.D	2.V	16CCLL	(4c 4e
.	.	16C	.
.	.	16BB	.
.	.	16CJJ	.
.	.	16ELL	4g)
.	.	16C	.
.	.	16BB	.
.	.	16CJJ	.
.	.	16GGLL	4e' 4g'
.	.	16C	.
.	.	16EE	.
.	.	16GGJJ	.
=204	=204	=204	=204
2.D	2.V	16CCLL	(4e 4cc
.	.	16C	.
.	.	16BB	.
.	.	16CJJ	.
.	.	16ELL	4g)
.	.	16C	.
.	.	16BB	.
.	.	16CJJ	.
.	.	16GGLL	4g'
.	.	16C	.
.	.	16EE	.
.	.	16GGJJ	.
=205	=205	=205	=205
2.D	2.V	16CCLL	(4c 4e
.	.	16C	.
.	.	16BB	.
.	.	16CJJ	.
.	.	16ELL	4g)
.	.	16C	.
.	.	16BB	.
.	.	16CJJ	.
.	.	16GGLL	4e' 4g'
.	.	16C	.
.	.	16EE	.
.	.	16GGJJ	.
=206	=206	=206	=206
2.D	2.V	4CC	4e' 4cc'
.	.	4C	4r
.	.	4r	4ee' 4gg'
=207	=207	=207	=207
2.D	2.V	16CLL	(4cc 4ee
.	.	16c	.
.	.	16B	.
.	.	16cJJ	.
.	.	16eLL	4gg)
.	.	16c	.
.	.	16B	.
.	.	16cJJ	.
.	.	16GLL	4ee' 4gg'
.	.	16c	.
.	.	16E	.
.	.	16GJJ	.
=208	=208	=208	=208
2.D	2.V	16CLL	(4ee 4ccc
.	.	16c	.
.	.	16B	.
.	.	16cJJ	.
.	.	16eLL	4gg)
.	.	16c	.
.	.	16B	.
.	.	16cJJ	.
.	.	16GLL	4gg'
.	.	16c	.
.	.	16E	.
.	.	16GJJ	.
=209	=209	=209	=209
2.D	2.V	16CLL	(4cc 4ee
.	.	16c	.
.	.	16B	.
.	.	16cJJ	.
.	.	16eLL	4gg)
.	.	16c	.
.	.	16B	.
.	.	16cJJ	.
.	.	16GLL	4ee' 4gg'
.	.	16c	.
.	.	16E	.
.	.	16GJJ	.
=210	=210	=210	=210
2.D	2.V	4C	4ee 4ccc
.	.	4c	4r
.	.	4r	4cc
=211	=211	=211	=211
2D	2V	16CLL	(4cc
.	.	16c	.
.	.	16B	.
.	.	16cJJ	.
.	.	16BLL	4dd
.	.	16c	.
.	.	16B	.
.	.	16cJJ	.
4D	4V7d	16B-LL	4ee
.	.	16c	.
.	.	16B-	.
.	.	16cJJ	.
=212	=212	=212	=212
2.D	2.Ib	16ALL	4ff
.	.	16c	.
.	.	16B	.
.	.	16cJJ	.
.	.	16G#LL	4ee
.	.	16c	.
.	.	16B	.
.	.	16cJJ	.
.	.	16ALL	4ff)
.	.	16c	.
.	.	16B	.
.	.	16cJJ	.
=213	=213	=213	=213
4D	4Ib	16ALL	(4cc
.	.	16c	.
.	.	16B	.
.	.	16cJJ	.
4D	4V7c	16GLL	4ee
.	.	16c	.
.	.	16B-	.
.	.	16cJJ	.
4D	4I	16FLL	4ff
.	.	16c	.
.	.	16A	.
.	.	16cJJ	.
=214	=214	=214	=214
4D	4Vb	16ELL	4gg
.	.	16c	.
.	.	16G	.
.	.	16cJJ	.
4D	4Cto7	16D#LL	4ff#
.	.	16c	.
.	.	16F#	.
.	.	16cJJ	.
4D	4Vb	16ELL	4gg)
.	.	16c	.
.	.	16G	.
.	.	16cJJ	.
=215	=215	=215	=215
4D	4Ib	16ELL	(4cc
.	.	16c	.
.	.	16G	.
.	.	16cJJ	.
4D	4vi7	16DLL	4ff
.	.	16c	.
.	.	16F	.
.	.	16cJJ	.
4D	4Vb	16CLL	4gg
.	.	16c	.
.	.	16E	.
.	.	16cJJ	.
=216	=216	=216	=216
4D	4I	16FLL	4aa
.	.	16c	.
.	.	16A	.
.	.	16cJJ	.
4D	4V+	16ELL	4gg#
.	.	16c	.
.	.	16G#	.
.	.	16cJJ	.
4D	4I	16FLL	4aa)
.	.	16c	.
.	.	16A	.
.	.	16cJJ	.
=217	=217	=217	=217
2.D	2.V7/V	16GLL	(4b 4bb
.	.	16f	.
.	.	16d	.
.	.	16fJJ	.
.	.	16GLL	4a 4aa
.	.	16e	.
.	.	16c	.
.	.	16eJJ	.
.	.	16GLL	4b) 4bb
.	.	16f	.
.	.	16d	.
.	.	16fJJ	.
=218	=218	=218	=218
2.D	2.V	16cLL	2.cc 2.ccc
.	.	16g	.
.	.	16e	.
.	.	16cJJ	.
.	.	16GLL	.
.	.	16e	.
.	.	16c	.
.	.	16GJJ	.
.	.	16ELL	.
.	.	16c	.
.	.	16G	.
.	.	16EJJ	.
=219	=219	=219	=219
2.D	2.V	16CLL	2.r
.	.	16G	.
.	.	16E	.
.	.	16CJJ	.
.	.	16GGLL	.
.	.	16E	.
.	.	16C	.
.	.	16GGJJ	.
.	.	16EELL	.
.	.	16C	.
.	.	16GG	.
.	.	16EEJJ	.
=220	=220	=220	=220
2.D	2.V	16CCLL	2.r
.	.	16EE	.
.	.	16GG	.
.	.	16CJJ	.
.	.	16ELL	.
.	.	16C	.
.	.	16G	.
.	.	16EJJ	.
.	.	16cLL	.
.	.	16G	.
.	.	16e	.
.	.	16cJJ	.
=221	=221	=221	=221
2D	2V7	16gLL	2r
.	.	16e	.
.	.	16b-	.
.	.	16gJJ	.
.	.	16eLL	.
.	.	16c	.
.	.	16B-	.
.	.	16GJJ	.
*-	*-	*-	*-
